X: 30309
T: Old Man Of Ennistymon, The
R: jig
M: 6/8
K: Amajor
|:c2e dBA|BEF GAB|c2e dBG|BAG A2B|
c2e dBA|BEF GAB|c2e dBG|BAG A2B:|
|:g3 gaf|ged Bcd|a3 abg|a2e edB|
g3 gaf|ged Bcd|c2e dBG|BAG A2B:|

